styles/4/Numix/32/places/default-user-desktop.svg

<?xml version="1.0" encoding="UTF-8" standalone="no"?>
<!-- Created with Inkscape (http://www.inkscape.org/) -->

<svg
   xmlns:dc="http://purl.org/dc/elements/1.1/"
   xmlns:cc="http://creativecommons.org/ns#"
   xmlns:rdf="http://www.w3.org/1999/02/22-rdf-syntax-ns#"
   xmlns:svg="http://www.w3.org/2000/svg"
   xmlns="http://www.w3.org/2000/svg"
   xmlns:sodipodi="http://sodipodi.sourceforge.net/DTD/sodipodi-0.dtd"
   xmlns:inkscape="http://www.inkscape.org/namespaces/inkscape"
   width="32"
   height="32"
   id="svg2"
   version="1.1"
   inkscape:version="0.91 r"
   sodipodi:docname="default-user-desktop.svg"
   inkscape:export-filename="/media/Data/Main/Visuals/Icons/Numix/Desktop/repos/numix-wiki/Gjorgi/Numix-folders/48/New/folder-144.png"
   inkscape:export-xdpi="270"
   inkscape:export-ydpi="270">
  <defs
     id="defs4" />
  <sodipodi:namedview
     id="base"
     pagecolor="#ffffff"
     bordercolor="#666666"
     borderopacity="1.0"
     inkscape:pageopacity="0.0"
     inkscape:pageshadow="2"
     inkscape:zoom="12.989691"
     inkscape:cx="3.57864"
     inkscape:cy="16.702981"
     inkscape:document-units="px"
     inkscape:current-layer="layer1"
     showgrid="true"
     inkscape:window-width="1280"
     inkscape:window-height="998"
     inkscape:window-x="0"
     inkscape:window-y="0"
     inkscape:window-maximized="1"
     showguides="true"
     inkscape:guide-bbox="true">
    <inkscape:grid
       type="xygrid"
       id="grid2985"
       empspacing="5"
       visible="true"
       enabled="true"
       snapvisiblegridlinesonly="true" />
  </sodipodi:namedview>
  <metadata
     id="metadata7">
    <rdf:RDF>
      <cc:Work
         rdf:about="">
        <dc:format>image/svg+xml</dc:format>
        <dc:type
           rdf:resource="http://purl.org/dc/dcmitype/StillImage" />
        <dc:title />
      </cc:Work>
    </rdf:RDF>
  </metadata>
  <g
     inkscape:label="Layer 1"
     inkscape:groupmode="layer"
     id="layer1"
     transform="translate(0,-1020.3622)">
    <path
       style="fill:#e9a439;fill-opacity:1;stroke:none"
       d="m 4,1025.3622 23.5,0 c 1,0 1.5,0.4999 1.5,1.4996 l 0,3.4991 c 0,0.5538 -0.4737,0.4998 -1,0.4998 l -24,0 c -0.5263,0 -1,-0.4459 -1,-0.9997 l 0,-4.4988 z"
       id="path3811"
       inkscape:connector-curvature="0"
       sodipodi:nodetypes="csssssscc" />
    <path
       style="opacity:0.02999998;fill:#000000;fill-opacity:1;stroke:none"
       d="m 3,1028.3622 0,2.5 26,0 0,-2.5 z"
       id="path3807"
       inkscape:connector-curvature="0" />
    <path
       style="fill:#e9a439;fill-opacity:1;stroke:none"
       d="m 3,1027.3622 0,-2.5 c 0,-1 0.4545455,-1.5 0.9090909,-1.5 l 5.1818181,0 c 0.454546,0 0.909091,0.5 0.909091,1.5 l 0,2.5 z"
       id="rect3760"
       inkscape:connector-curvature="0"
       sodipodi:nodetypes="csssscc" />
    <rect
       style="fill:#f5c14e;fill-opacity:1;stroke:none"
       id="rect2990"
       width="30"
       height="20"
       x="1"
       y="1029.3622"
       rx="2"
       ry="1.6666666" />
    <path
       style="opacity:0.1;fill:#ffffff;fill-opacity:1;stroke:none"
       d="m 3,1029.3622 c -1.108,0 -2,0.7485 -2,1.6719 l 0,1 c 0,-0.9234 0.892,-1.6719 2,-1.6719 l 26,0 c 1.108,0 2,0.7485 2,1.6719 l 0,-1 c 0,-0.9234 -0.892,-1.6719 -2,-1.6719 l -26,0 z"
       id="rect3004"
       inkscape:connector-curvature="0" />
    <path
       style="opacity:0.05;fill:#000000;fill-opacity:1;stroke:none"
       d="m 10,1025.3622 0,1 1,0 16.5,0 c 1,0 1.5,0.5002 1.5,1.5 l 0,-1 c 0,-0.9997 -0.5,-1.5 -1.5,-1.5 l -16.5,0 z"
       id="path3781"
       inkscape:connector-curvature="0"
       sodipodi:nodetypes="cccscsscc" />
    <path
       style="opacity:0.05;fill:#000000;fill-opacity:1;stroke:none"
       d="m 3.90625,1023.3622 c -0.4545454,0 -0.90625,0.5 -0.90625,1.5 l 0,1 c 0,-1 0.4517046,-1.5 0.90625,-1.5 l 5.1875,0 c 0.454546,0 0.90625,0.5 0.90625,1.5 l 0,-1 c 0,-1 -0.451704,-1.5 -0.90625,-1.5 l -5.1875,0 z"
       id="path3801"
       inkscape:connector-curvature="0" />
    <path
       style="opacity:1.0;fill:#c79d41;fill-opacity:1"
       d="M 11 12 C 9.892 12 9 12.892 9 14 L 9 21 C 9 22.108 9.892 23 11 23 L 14 23 L 12 25 C 11 26 11 26 12 26 L 20 26 C 21 26 21 26 20 25 L 18 23 L 21 23 C 22.108 23 23 22.108 23 21 L 23 14 C 23 12.892 22.108 12 21 12 L 11 12 z M 11 14 L 21 14 L 21 21 L 11 21 L 11 14 z M 13.34375 15 C 13.062428 15.046875 12.49995 15.25 12.5 16 L 12.5 19 C 12.500067 20 13.5 20 13.5 20 L 16.5 20 C 17.5 20 17.5 19 17.5 19 L 17.5 17 L 15.5 15 L 13.5 15 C 13.5 15 13.437524 14.984375 13.34375 15 z M 13.5 16 L 15 16 L 15 17.5 L 16.5 17.5 L 16.5 19 L 13.5 19 L 13.5 16 z "
       transform="translate(0,1020.3622)"
       id="path8-1" />
  </g>
</svg>

<!-- Created with Inkscape (http://www.inkscape.org/) -->
<svg xmlns="http://www.w3.org/2000/svg" viewBox="0 0 32 32">
 <g transform="translate(0,-1020.3622)">
  <path d="m 4 1025.36 23.5 0 c 1 0 1.5 0.5 1.5 1.5 l 0 3.499 c 0 0.554 -0.474 0.5 -1 0.5 l -24 0 c -0.526 0 -1 -0.446 -1 -1 l 0 -4.499 z" style="fill:#e9a439;fill-opacity:1;stroke:none"/>
  <path d="m 3 1028.36 0 2.5 26 0 0 -2.5 z" style="fill:#000;opacity:0.03;fill-opacity:1;stroke:none"/>
  <path d="m 3 1027.36 0 -2.5 c 0 -1 0.455 -1.5 0.909 -1.5 l 5.182 0 c 0.455 0 0.909 0.5 0.909 1.5 l 0 2.5 z" style="fill:#e9a439;fill-opacity:1;stroke:none"/>
  <rect width="30" height="20" x="1" y="1029.36" rx="2" ry="1.667" style="fill:#f5c14e;fill-opacity:1;stroke:none"/>
  <path d="m 3 1029.36 c -1.108 0 -2 0.748 -2 1.672 l 0 1 c 0 -0.923 0.892 -1.672 2 -1.672 l 26 0 c 1.108 0 2 0.748 2 1.672 l 0 -1 c 0 -0.923 -0.892 -1.672 -2 -1.672 l -26 0 z" style="fill:#fff;opacity:0.1;fill-opacity:1;stroke:none"/>
  <path d="m 10 1025.36 0 1 1 0 16.5 0 c 1 0 1.5 0.5 1.5 1.5 l 0 -1 c 0 -1 -0.5 -1.5 -1.5 -1.5 l -16.5 0 z" style="fill:#000;opacity:0.05;fill-opacity:1;stroke:none"/>
  <path d="m 3.906 1023.36 c -0.455 0 -0.906 0.5 -0.906 1.5 l 0 1 c 0 -1 0.452 -1.5 0.906 -1.5 l 5.188 0 c 0.455 0 0.906 0.5 0.906 1.5 l 0 -1 c 0 -1 -0.452 -1.5 -0.906 -1.5 l -5.188 0 z" style="fill:#000;opacity:0.05;fill-opacity:1;stroke:none"/>
  <path d="m 11 12 c -1.108 0 -2 0.892 -2 2 l 0 7 c 0 1.108 0.892 2 2 2 l 3 0 l -2 2 c -1 1 -1 1 0 1 l 8 0 c 1 0 1 0 0 -1 l -2 -2 l 3 0 c 1.108 0 2 -0.892 2 -2 l 0 -7 c 0 -1.108 -0.892 -2 -2 -2 l -10 0 z m 0 2 l 10 0 l 0 7 l -10 0 l 0 -7 z m 2.344 1 c -0.281 0.047 -0.844 0.25 -0.844 1 l 0 3 c 0 1 1 1 1 1 l 3 0 c 1 0 1 -1 1 -1 l 0 -2 l -2 -2 l -2 0 c 0 0 -0.062 -0.016 -0.156 0 z m 0.156 1 l 1.5 0 l 0 1.5 l 1.5 0 l 0 1.5 l -3 0 l 0 -3 z" transform="translate(0,1020.3622)" style="fill:#c79d41;opacity:1;fill-opacity:1"/>
 </g>
</svg>
